app/dist/common/images/yunnan-tin.svg

<svg height="18" viewBox="0 0 18 18" width="18" xmlns="http://www.w3.org/2000/svg"><path d="m0 0h18v18h-18z" fill="#f0f3fa"/><path d="m15 9a6 6 0 1 1 -11.66-2h1.08a4.98 4.98 0 0 0 4.58 7 5 5 0 0 0 4.58-7h1.08c.22.63.34 1.3.34 2zm-1.13-3.5h-1.3a4.98 4.98 0 0 0 -7.14 0h-1.3a6 6 0 0 1 9.74 0zm.58 1.05h-1.12l-2.5 4.45h-3.97l.67-.76-2.8-3.69h-1.17c.08-.19.18-.37.29-.55h1.99l3.19 2.98 3.03-2.98h2.1c.11.18.2.36.3.55zm-8.82 5.45v-.75h6.75v.75h-.6l-.4 1h-4.88l-.36-1z" fill="#65d600"/></svg>

<!-- by TradingView --><svg width="18" height="18" viewBox="0 0 18 18" xmlns="http://www.w3.org/2000/svg"><path fill="#F0F3FA" d="M0 0h18v18H0z"/><path d="M15 9A6 6 0 1 1 3.34 7h1.08A4.98 4.98 0 0 0 9 14a5 5 0 0 0 4.58-7h1.08c.22.63.34 1.3.34 2Zm-1.13-3.5h-1.3a4.98 4.98 0 0 0-7.14 0h-1.3a6 6 0 0 1 9.74 0Zm.58 1.05h-1.12L10.83 11H6.86l.67-.76-2.8-3.69H3.56c.08-.19.18-.37.29-.55h1.99l3.19 2.98L12.06 6h2.1c.11.18.2.36.3.55ZM5.63 12v-.75h6.75V12h-.6l-.4 1H6.5l-.36-1h-.51Z" fill="#65D600"/></svg>
